X:1
T:Title
%%score { ( 1 2 5 ) | ( 3 4 ) }
L:1/8
Q:1/4=100
M:6/8
K:Eb
V:1 treble nm="Grand Piano"
V:2 treble 
V:5 treble 
V:3 bass 
V:4 bass 
V:1
 [EG]3 [EG]3 | [EG]2 [FA] [_G=A]2 [=GB] | [Ac]2 [GB] [Ge]2 [EG] | [GB]6 | [FA]3 [FA]3 | %5
w: R.~Frank~Lehman *|||||
 [FA]2 [=EG] [FA]2 [GB] | [Bd]2 [Ac] [GB]2 [DF] | [EG]6 | [EG]3 [EG]3 | [EG]2 [FA] [_G=A]2 [=GB] | %10
w: |||||
 [Ge]2 [Fd] [Af]2 [Ge] | [Bd]3 .[CAc]3 | [CE]A[Ac] [ce]d[Ac] | [_G=A]3 [=GB]3 | z EA z CF | %15
w: |||||
 E6[K:bass] | B2 B dcB | [Ge]3 [GB]3 | B2 B d2 [Af] | e3 .B3 | G2 G G2 [G=A] | [G=B]3 [Gd]3 | %22
w: |||||||
 [_Gd]2 [G=A] c[D=B][GA] |[M:15/16] G3 [AB]3- [AB] z/ |[M:3/4] [Ge]2 [Ge] [Bd]2 [Ac] | z2 z .G3 | %26
w: ||||
 [=Ec]2 [EG] [Ec]2 [CGB] | [CFA]6 | .[F,CF]2 [CA] [Ed]2 [Ec] |[M:15/16] [EB]3 [Ee]3/2- [Ee]3 | %30
w: ||||
[M:3/4] [G,E]2 [CEA] [B,DG]2 [A,DF] | [G,E]6 |] %32
w: ||
V:2
 B,6 | B,6 | x6 | .B,3 z3 | B,6 | B,6 | x6 | .B,3 z3 | B,6 | B,6 | x6 | x6 | x6 | x6 | .B,3 .G3 | %15
 z2[K:bass] B,, .E,,3 | x6 | x6 | x6 | G6 | x6 | x6 | z3 ._G3 |[M:15/16] x15/2 |[M:3/4] x6 | %25
 [GB]3 [B,B]2- [B,FB] | x6 | x6 | x6 |[M:15/16] x15/2 |[M:3/4] x6 | x6 |] %32
V:3
 E,2 B,, E,2 B,, | E,2 B,, E,2 B,, | B,6 | E,2 B, G,2 E, | D,2 B,, D,2 B,, | D,2 B,, D,2 B,, | %6
 B,6 | E,2 B,, C,2 D, | E,2 B,, E,2 B,, | E,2 B,, E,2 B,, | z2 B,, E,2 B,, | A,,2 E, A,2 E, | %12
 z EE,[K:treble] z B[K:bass]E, | z CE B,G,E, | z2 C .B,2 [A,D] | .[E,G,]3 z3 | z3 .F3 | %17
 [E,B,]3 [E,E]3 | [B,DA]2 [B,DA] [B,A]2[K:bass] [B,,B,] | .B,3 z3 | [E,B,]2 [E,B,] [E,C]2 [E,_D] | %21
 [D,D]3 [D,=B,]3 | [D,=A,]2 [D,C] .[D,A,]2 [D,C] |[M:15/16] [G,=B,]3 [F,D]3/2- [F,D]3 | %24
[M:3/4] [E,B,]2 [E,B,] [E,E]2 [E,E] | [E,E]3 E,2 _D, | [C,G,]2 [C,C] [C,C]2 =E, | F,6 | %28
 z G F, [=A,,_G,]2 [A,,G,] |[M:15/16] [B,,G,]3 [=B,,_G,=A,]3/2- [B,,G,A,]3 | %30
[M:3/4] z[K:treble] B[K:bass] B,, B,,2 B,, | E,6 |] %32
V:4
 x6 | x6 | E,2 B,, E,2 B,, | x6 | x6 | x6 | D,2 B,, D,2 B,, | x6 | x6 | x6 | E,,6 | x6 | %12
 .A,,3[K:treble] .[A,C]3[K:bass] | .E,6 | B,,3 B,,3 | x6 | [B,DA]2 [B,DA] [B,A]-[B,EA][B,DA] | x6 | %18
 x5[K:bass] x | E,6 | x6 | x6 | x6 |[M:15/16] x15/2 |[M:3/4] x6 | x6 | x6 | x6 | A,,2 z2 z2 | %29
[M:15/16] x15/2 |[M:3/4] B,,2[K:treble][K:bass] z2 z2 | x6 |] %32
V:5
 x6 | x6 | x6 | x6 | x6 | x6 | x6 | x6 | x6 | x6 | x6 | x6 | x6 | x6 | x6 | x2[K:bass] x4 | x6 | %17
 x6 | x6 | z2 E- E2 z | x6 | x6 | x6 |[M:15/16] x15/2 |[M:3/4] x6 | x6 | x6 | x6 | x6 | %29
[M:15/16] x15/2 |[M:3/4] x6 | x6 |] %32

